symbols/web/chrome_reader_mode/materialsymbolsrounded/chrome_reader_mode_wght700fill1_20px.svg

<svg xmlns="http://www.w3.org/2000/svg" height="20" width="20"><path d="M3.667 17.375q-1.146 0-1.927-.781-.782-.782-.782-1.927V5.333q0-1.145.782-1.927.781-.781 1.927-.781h12.666q1.146 0 1.927.781.782.782.782 1.927v9.334q0 1.145-.782 1.927-.781.781-1.927.781Zm7.375-2.708h5.291V5.333h-5.291Zm1.625-6.438h2.062q.354 0 .573-.219.219-.218.219-.572 0-.334-.24-.573-.239-.24-.573-.24h-2.062q-.354 0-.563.229-.208.229-.208.584 0 .333.229.562.229.229.563.229Zm0 2.375h2.083q.333 0 .552-.229.219-.229.219-.583 0-.313-.24-.552-.239-.24-.552-.24h-2.083q-.354 0-.563.229-.208.229-.208.563 0 .333.229.573.229.239.563.239Zm0 2.375h2.062q.354 0 .573-.229.219-.229.219-.583 0-.334-.24-.563-.239-.229-.573-.229h-2.062q-.354 0-.563.219-.208.218-.208.573 0 .333.229.573.229.239.563.239Z"/></svg>

<svg xmlns="http://www.w3.org/2000/svg" height="20" width="20"><path d="M3.667 17.375Q2.521 17.375 1.74 16.594Q0.958 15.812 0.958 14.667V5.333Q0.958 4.188 1.74 3.406Q2.521 2.625 3.667 2.625H16.333Q17.479 2.625 18.26 3.406Q19.042 4.188 19.042 5.333V14.667Q19.042 15.812 18.26 16.594Q17.479 17.375 16.333 17.375ZM11.042 14.667H16.333Q16.333 14.667 16.333 14.667Q16.333 14.667 16.333 14.667V5.333Q16.333 5.333 16.333 5.333Q16.333 5.333 16.333 5.333H11.042ZM12.667 8.229H14.729Q15.083 8.229 15.302 8.01Q15.521 7.792 15.521 7.438Q15.521 7.104 15.281 6.865Q15.042 6.625 14.708 6.625H12.646Q12.292 6.625 12.083 6.854Q11.875 7.083 11.875 7.438Q11.875 7.771 12.104 8Q12.333 8.229 12.667 8.229ZM12.667 10.604H14.75Q15.083 10.604 15.302 10.375Q15.521 10.146 15.521 9.792Q15.521 9.479 15.281 9.24Q15.042 9 14.729 9H12.646Q12.292 9 12.083 9.229Q11.875 9.458 11.875 9.792Q11.875 10.125 12.104 10.365Q12.333 10.604 12.667 10.604ZM12.667 12.979H14.729Q15.083 12.979 15.302 12.75Q15.521 12.521 15.521 12.167Q15.521 11.833 15.281 11.604Q15.042 11.375 14.708 11.375H12.646Q12.292 11.375 12.083 11.594Q11.875 11.812 11.875 12.167Q11.875 12.5 12.104 12.74Q12.333 12.979 12.667 12.979Z"/></svg>
